flaticon/social-media/reddit.svg

<svg xmlns="http://www.w3.org/2000/svg" width="32" height="32" viewBox="0 0 24 24">
    <path d="M11.121094 8.398438C11.121094 7.519531 10.398438 6.800781 9.519531 6.800781 8.640625 6.800781 7.921875 7.519531 7.921875 8.398438 7.921875 9.28125 8.640625 10 9.519531 10 10.398438 10 11.121094 9.28125 11.121094 8.398438zM8.71875 8.398438C8.71875 7.960938 9.078125 7.601562 9.519531 7.601562 9.960938 7.601562 10.320312 7.960938 10.320312 8.398438 10.320312 8.839844 9.960938 9.199219 9.519531 9.199219 9.078125 9.199219 8.71875 8.839844 8.71875 8.398438zM14.320312 6.800781C13.441406 6.800781 12.71875 7.519531 12.71875 8.398438 12.71875 9.28125 13.441406 10 14.320312 10 15.199219 10 15.921875 9.28125 15.921875 8.398438 15.921875 7.519531 15.199219 6.800781 14.320312 6.800781zM14.320312 9.199219C13.878906 9.199219 13.519531 8.839844 13.519531 8.398438 13.519531 7.960938 13.878906 7.601562 14.320312 7.601562 14.761719 7.601562 15.121094 7.960938 15.121094 8.398438 15.121094 8.839844 14.761719 9.199219 14.320312 9.199219zM9.238281 10.921875C9.078125 11.078125 9.078125 11.320312 9.238281 11.480469 9.800781 12.039062 10.839844 12.398438 11.921875 12.398438 13 12.398438 14.039062 12.039062 14.601562 11.480469 14.761719 11.320312 14.761719 11.078125 14.601562 10.921875 14.441406 10.761719 14.199219 10.761719 14.039062 10.921875 13.71875 11.238281 13 11.601562 11.921875 11.601562 10.839844 11.601562 10.121094 11.238281 9.800781 10.921875 9.640625 10.761719 9.398438 10.761719 9.238281 10.921875zM9.238281 10.921875"/>
    <path d="M 18.480469 4.71875 C 18.039062 4.71875 17.558594 4.878906 17.199219 5.121094 C 15.765625 4.265625 14.03125 3.714844 12.46875 3.609375 L 13.28125 0.839844 L 15.578125 1.515625 C 15.539062 1.671875 15.519531 1.832031 15.519531 2 C 15.519531 3.121094 16.398438 4 17.519531 4 C 18.640625 4 19.519531 3.121094 19.519531 2 C 19.519531 0.878906 18.640625 0 17.519531 0 C 16.855469 0 16.273438 0.3125 15.910156 0.796875 L 13.359375 0.078125 C 13 0 12.640625 0.199219 12.519531 0.558594 L 11.609375 3.613281 C 10.011719 3.710938 8.265625 4.253906 6.800781 5.078125 C 6.441406 4.800781 6 4.679688 5.519531 4.679688 C 4.238281 4.679688 3.199219 5.71875 3.199219 7 C 3.199219 7.71875 3.558594 8.398438 4.121094 8.839844 C 4.121094 8.960938 4.121094 9.078125 4.121094 9.199219 C 4.121094 10.71875 5 12.078125 6.558594 13.121094 C 6.839844 13.320312 7.121094 13.480469 7.441406 13.640625 C 6.558594 14.359375 6.039062 15.480469 6.039062 16.761719 C 6.039062 18.480469 7 19.960938 8.398438 20.441406 C 8.441406 20.519531 8.441406 20.558594 8.480469 20.640625 C 7.238281 20.839844 6.320312 21.71875 6.320312 22.800781 C 6.320312 22.960938 6.359375 23.28125 6.441406 23.519531 C 6.519531 23.800781 6.800781 24 7.121094 24 L 16.800781 24 C 17.121094 24 17.398438 23.800781 17.441406 23.480469 C 17.519531 23.320312 17.480469 23.078125 17.480469 22.921875 C 17.480469 22.878906 17.480469 22.839844 17.480469 22.800781 C 17.480469 21.71875 16.640625 20.878906 15.519531 20.679688 C 15.558594 20.601562 15.558594 20.558594 15.601562 20.480469 C 17 20 17.960938 18.519531 17.960938 16.800781 C 17.960938 15.558594 17.398438 14.398438 16.558594 13.679688 C 16.878906 13.519531 17.160156 13.359375 17.441406 13.160156 C 19 12.121094 19.878906 10.761719 19.878906 9.238281 C 19.878906 9.121094 19.878906 9 19.878906 8.878906 C 20.441406 8.441406 20.800781 7.761719 20.800781 7.039062 C 20.800781 5.761719 19.761719 4.71875 18.480469 4.71875 Z M 17.519531 0.800781 C 18.199219 0.800781 18.71875 1.320312 18.71875 2 C 18.71875 2.679688 18.199219 3.199219 17.519531 3.199219 C 16.839844 3.199219 16.320312 2.679688 16.320312 2 C 16.320312 1.320312 16.839844 0.800781 17.519531 0.800781 Z M 19.238281 8.398438 C 19.078125 8.480469 19 8.640625 19.039062 8.800781 C 19.078125 8.960938 19.078125 9.121094 19.078125 9.28125 C 19.078125 10.480469 18.320312 11.640625 17 12.519531 C 16.558594 12.800781 16.078125 13.039062 15.558594 13.238281 C 15.441406 13.28125 15.320312 13.441406 15.320312 13.601562 C 15.320312 13.761719 15.398438 13.878906 15.558594 13.960938 C 16.519531 14.398438 17.160156 15.558594 17.160156 16.800781 C 17.160156 18.199219 16.320312 19.441406 15.199219 19.761719 C 15.078125 19.800781 14.960938 19.921875 14.921875 20.039062 C 14.839844 20.320312 14.71875 20.601562 14.601562 20.878906 C 14.558594 21 14.558594 21.160156 14.640625 21.28125 C 14.71875 21.398438 14.878906 21.441406 15 21.441406 C 15.039062 21.441406 15.078125 21.441406 15.121094 21.441406 C 16.039062 21.441406 16.71875 22 16.71875 22.800781 C 16.71875 22.878906 16.71875 22.921875 16.71875 23 C 16.71875 23.039062 16.71875 23.121094 16.71875 23.199219 L 7.160156 23.199219 C 7.160156 23.078125 7.121094 22.878906 7.121094 22.800781 C 7.121094 22.039062 7.921875 21.441406 8.71875 21.480469 C 8.761719 21.480469 8.839844 21.480469 8.878906 21.480469 C 9.039062 21.480469 9.160156 21.441406 9.238281 21.320312 C 9.320312 21.199219 9.320312 21.039062 9.28125 20.921875 C 9.160156 20.640625 9.039062 20.320312 8.960938 20.039062 C 8.921875 19.878906 8.800781 19.800781 8.679688 19.761719 C 7.558594 19.480469 6.71875 18.199219 6.71875 16.800781 C 6.71875 15.558594 7.359375 14.398438 8.320312 13.960938 C 8.480469 13.921875 8.558594 13.761719 8.558594 13.601562 C 8.558594 13.441406 8.480469 13.28125 8.320312 13.238281 C 7.800781 13.039062 7.320312 12.800781 6.878906 12.519531 C 5.519531 11.640625 4.800781 10.519531 4.800781 9.28125 C 4.800781 9.121094 4.800781 8.960938 4.839844 8.800781 C 4.839844 8.640625 4.800781 8.480469 4.640625 8.398438 C 4.199219 8.160156 3.921875 7.640625 3.921875 7.121094 C 3.921875 6.28125 4.601562 5.601562 5.441406 5.601562 C 5.800781 5.601562 6.160156 5.761719 6.441406 6 C 6.558594 6.121094 6.761719 6.121094 6.921875 6.039062 C 8.398438 5.078125 10.238281 4.519531 11.839844 4.480469 L 12.238281 4.480469 C 13.800781 4.558594 15.558594 5.121094 16.960938 6.039062 C 17.121094 6.121094 17.320312 6.121094 17.441406 6 C 17.71875 5.71875 18.078125 5.601562 18.441406 5.601562 C 19.28125 5.601562 19.960938 6.28125 19.960938 7.121094 C 19.960938 7.640625 19.679688 8.121094 19.238281 8.398438 Z M 19.238281 8.398438"/>
    <path d="M 14.558594 14.601562 C 14.480469 14.558594 14.359375 14.519531 14.238281 14.558594 C 12.800781 15 11.160156 15 9.761719 14.558594 C 9.640625 14.519531 9.519531 14.519531 9.441406 14.601562 C 9.320312 14.679688 9.238281 14.761719 9.238281 14.878906 C 9.160156 15.398438 9.121094 16 9.121094 16.558594 C 9.121094 19.078125 9.960938 21.238281 11.199219 21.960938 C 11.28125 22 11.320312 22 11.398438 22 L 12.601562 22 C 12.679688 22 12.761719 22 12.800781 21.960938 C 14.039062 21.28125 14.878906 19.078125 14.878906 16.558594 C 14.878906 16 14.839844 15.441406 14.761719 14.878906 C 14.71875 14.761719 14.640625 14.679688 14.558594 14.601562 Z M 12.519531 21.199219 L 11.519531 21.199219 C 10.601562 20.601562 9.960938 18.640625 9.921875 16.519531 C 9.921875 16.160156 9.960938 15.761719 10 15.398438 C 11.28125 15.71875 12.71875 15.71875 14 15.398438 C 14.039062 15.761719 14.078125 16.121094 14.078125 16.519531 C 14.078125 18.640625 13.441406 20.601562 12.519531 21.199219 Z M 12.519531 21.199219"/>
</svg>

<svg xmlns="http://www.w3.org/2000/svg" width="32" height="32" viewBox="0 0 24 24">
    <path d="M11.121 8.398c0-.878-.723-1.597-1.601-1.597-.88 0-1.598.719-1.598 1.597C7.922 9.281 8.64 10 9.52 10c.878 0 1.601-.719 1.601-1.602zm-2.402 0a.801.801 0 0 1 1.601 0 .802.802 0 0 1-1.601 0zm0 0M14.32 6.8c-.879 0-1.601.72-1.601 1.598 0 .883.722 1.602 1.601 1.602.88 0 1.602-.719 1.602-1.602 0-.878-.723-1.597-1.602-1.597zm0 2.4c-.441 0-.8-.36-.8-.802a.801.801 0 0 1 1.601 0c0 .442-.36.801-.8.801zm0 0M9.238 10.922a.385.385 0 0 0 0 .558c.563.56 1.602.918 2.684.918 1.078 0 2.117-.359 2.68-.918a.385.385 0 0 0 0-.558.39.39 0 0 0-.563 0c-.32.316-1.039.68-2.117.68-1.082 0-1.8-.364-2.121-.68a.39.39 0 0 0-.563 0zm0 0"/>
    <path d="M18.48 4.719a2.4 2.4 0 0 0-1.28.402c-1.434-.855-3.169-1.406-4.731-1.512L13.28.84l2.297.677c-.039.156-.058.316-.058.484 0 1.121.878 2 2 2 1.12 0 2-.879 2-2s-.88-2-2-2a2 2 0 0 0-1.61.797L13.36.078a.72.72 0 0 0-.84.48l-.91 3.055c-1.598.098-3.344.64-4.81 1.465-.359-.277-.8-.398-1.28-.398A2.32 2.32 0 0 0 3.2 7c0 .719.359 1.398.921 1.84v.36c0 1.519.879 2.878 2.438 3.921.28.2.562.36.882.52-.882.718-1.402 1.84-1.402 3.12 0 1.72.961 3.2 2.36 3.68.042.079.042.118.081.2-1.242.199-2.16 1.078-2.16 2.16 0 .16.04.48.121.719.079.28.36.48.68.48h9.68c.32 0 .597-.2.64-.52.079-.16.04-.402.04-.558V22.8c0-1.082-.84-1.922-1.961-2.121.039-.078.039-.121.082-.2C17 20 17.96 18.52 17.96 16.8c0-1.241-.563-2.402-1.402-3.12.32-.16.601-.32.882-.52C19 12.121 19.88 10.762 19.88 9.238v-.36A2.357 2.357 0 0 0 20.8 7.04c0-1.277-1.04-2.32-2.32-2.32zM17.52.8c.68 0 1.199.52 1.199 1.199 0 .68-.52 1.2-1.2 1.2-.68 0-1.199-.52-1.199-1.2 0-.68.52-1.2 1.2-1.2zm1.718 7.597c-.16.082-.238.243-.199.403.04.16.04.32.04.48 0 1.2-.759 2.36-2.079 3.239-.441.28-.922.52-1.441.718a.417.417 0 0 0-.239.364c0 .16.078.277.239.359.96.437 1.601 1.598 1.601 2.84 0 1.398-.84 2.64-1.96 2.96a.474.474 0 0 0-.278.278c-.082.281-.203.563-.32.84a.46.46 0 0 0 .039.402c.078.117.238.16.359.16h.121c.918 0 1.598.559 1.598 1.36v.399H7.16c0-.122-.039-.321-.039-.4 0-.76.8-1.359 1.598-1.32h.16c.16 0 .281-.039.36-.16a.468.468 0 0 0 .042-.398 7.285 7.285 0 0 1-.32-.883c-.04-.16-.16-.238-.281-.277-1.121-.282-1.961-1.563-1.961-2.961 0-1.242.64-2.403 1.601-2.84.16-.04.239-.2.239-.36 0-.16-.079-.32-.239-.363-.52-.199-1-.437-1.441-.718-1.36-.88-2.078-2-2.078-3.239 0-.16 0-.32.039-.48 0-.16-.04-.32-.2-.403-.44-.238-.718-.757-.718-1.277 0-.84.68-1.52 1.52-1.52.359 0 .718.16 1 .399.117.121.32.121.48.04 1.476-.962 3.316-1.52 4.918-1.56h.398c1.563.079 3.32.641 4.723 1.56.16.081.36.081.48-.04a1.372 1.372 0 0 1 1-.398c.84 0 1.52.68 1.52 1.52 0 .519-.281 1-.723 1.276zm0 0"/>
    <path d="M14.559 14.602a.414.414 0 0 0-.32-.043c-1.438.441-3.079.441-4.477 0-.121-.04-.242-.04-.32.043-.122.078-.204.16-.204.277a11.73 11.73 0 0 0-.117 1.68c0 2.52.84 4.68 2.078 5.402.082.039.121.039.2.039h1.203c.078 0 .16 0 .199-.04 1.238-.679 2.078-2.882 2.078-5.401 0-.559-.04-1.118-.117-1.68a.732.732 0 0 0-.203-.277zm-2.04 6.597h-1c-.917-.597-1.558-2.558-1.597-4.68 0-.359.039-.757.078-1.12 1.281.32 2.719.32 4 0 .04.363.078.722.078 1.12 0 2.122-.637 4.083-1.558 4.68zm0 0"/>
</svg>
